X:8088
T:WHTCOKDB- The Ranting Highland Man
O:england
S:Aird's Airs, I, c 1778
Q:1/4=120
L:1/4
M:C
K:G
G/A/|BBBA/G/|BBBg|BBBA/G/|A/G/A/B/AG/A/|BBc/B/A/G/|\
ABgf/g/|ag/f/gf/e/|dBB::B/c/|dBgB|ddde|dc/B/gf/g/|\
aAAG/A/|BBc/B/A/G/|ABgf/g/|ag/f/gf/e/|dBB:|]


